X:484
T: Chuanfu qu
N: C0021
O: China,Shaanxi, shanbei (Norden)
S: I, 70 (1)]
N: Wenig Verzierungen. Sehr berhmt in Nordchina.
R: Bootslied (laut Titel); Haozi]
M: 4/4
L: 1/16
K: Bb
c3fb3gf8 | c4f4c4f4 |
c2f2c2b2g4f2g2 | b8c4-c2z2 |
c3fc2b2g4f2g2 | b8c4-c2z2 |
c3fc2b2g4f2g2 | b8c4-c2z2 |
c3fc2b2g4f2g2 | b8c4-c2z2 |
c3fc2b2g4f2g2 | b8c4-c2z2 |
c6c2g4f2f2 | c2e2c2b2b2c2e2c2 | b8-b4z4

@@@ Tune index: 6485
